X:20
T:Pulleys Allmand THO4.020, Le
M:2/4
L:1/16
Z:vmp. Peter Dunk 2010/11.from a transcription by Fynn Titford-Mock 2007
B:Thompson's Compleat Collection of 200 Favourite Country Dances Volume IV.
Q:1/4=80
K:G
gbgd egec|BdBG cdef|gbgd egec|(3Bcd (3DEF G4:|
|:FDFA BGBd|cdef gedc|BdBG egec|dBcA G4:|
